X:89
T:Stay and take your Petticoat with you
M:2/4
L:1/8
B:Thompson's Compleat Collection of 200 Favourite Country Dances, vol. 1 (London, 1757)
Z:Transcribed and edited by Fynnian Titford-Mock, 2007
Z:abc's:AK/Fiddler's Companion
K:Gmin
d|bag^f|gedc|d(3c/d/e/ dc|BAGd|bag^f|gbac|dc/B/ "tr"c2|d3:|
|:d|(f_a)(g=B)|cGEG|egf=A|BFDF|(BA) (ed)|g^fge|dcBA|G3:|

